!!!OTL: "Kuhreigen" UNSERN AETTI
!!!ARE: Europa, Mitteleuropa, Entlebug
!!!SCT: Z1305
!!!YEM: Copyright 1995, estate of Helmut Schaffrath.
**kern
*ICvox
*Ivox
*M3/8
*k[]
*C:
{4c
16d
16B
=1
4c
16d
16B
=2
4c
16d
16B
=3
4c
8G}
=4
{8g
8e
8c
=5
8d
8B
8G
=6
8g
8e
8c
=7
8d
8B
8G}
=8
{4e
8e
=9
4f#
8f#
=10
4g
16f#
16g
=11
4G
8g
=12
16G
16G
16G
16G
16G
16g}
=13
{4d
8e
=14
8f
8d
8B
=15
8c
8e
8f
=16
8g
8e
8c}
=17
{4d
8e
=18
8f
8d
8B
=19
8c
8e
8f
=20
8g
8e
8c}
=21
{8c
8c
8c
=22
4c
8c
=23
8a
8f
8a
=24
4.g}
=25
{8f
8d
8f
=26
8e
8g
8e
=27
8d
8c
8B
=28
4c
8cc
=29
16c
16c
16c
16c
16c
16cc}
==
!!!AGN: Handwerker -, Bauern - Lied
!!!ONB: ESAC (Essen Associative Code) Database: ZUCCAL
!!!AMT: simple triple
!!!AIN: vox
!!!EED: Helmut Schaffrath
!!!EEV: 1.0
*-
